packages/core/src/svgs/tokens/branded/DOLA.svg

<svg width="24" height="24" viewBox="0 0 24 24" fill="none" xmlns="http://www.w3.org/2000/svg">
<path fill-rule="evenodd" clip-rule="evenodd" d="M12.625 3.25H9.23748L3.25 19.5H12.625C14.7799 19.5 16.8465 18.6439 18.3703 17.1203C19.894 15.5964 20.75 13.5298 20.75 11.375C20.75 9.22017 19.894 7.15348 18.3703 5.62975C16.8465 4.10601 14.7799 3.25 12.625 3.25ZM12.625 5.12499H10.7501L6.0625 17.625H12.625C14.2826 17.625 15.8723 16.9666 17.0444 15.7945C18.2166 14.6223 18.875 13.0325 18.875 11.375C18.875 9.71746 18.2166 8.12768 17.0444 6.95558C15.8723 5.78348 14.2826 5.12499 12.625 5.12499Z" fill="#FFBB51"/>
<path d="M13.5622 2H16.1311L8.94351 22H6.37476L13.5622 2ZM17.3123 2H19.881L12.6935 22H10.1248L17.3123 2Z" fill="#FFBB51"/>
</svg>

<svg xmlns="http://www.w3.org/2000/svg" width="24" height="24" fill="none" viewBox="0 0 24 24">
    <path fill="#FFBB51" fill-rule="evenodd" d="M12.625 3.25H9.237L3.25 19.5h9.375a8.126 8.126 0 0 0 0-16.25m0 1.875H10.75l-4.687 12.5h6.562a6.25 6.25 0 1 0 0-12.5" clip-rule="evenodd"/>
    <path fill="#FFBB51" d="M13.562 2h2.57L8.943 22h-2.57zm3.75 0h2.569l-7.187 20h-2.57z"/>
</svg>
